; generated by Slic3r 1.2.9 on 2019-05-19 at 21:51:43

; external perimeters extrusion width = 0.10mm
; perimeters extrusion width = 0.20mm
; infill extrusion width = 0.67mm
; solid infill extrusion width = 0.67mm
; top infill extrusion width = 0.67mm

M107
M104 S205 ; set temperature
G28 ; home all axes
G1 Z5 F5000 ; lift nozzle

M109 S205 ; wait for temperature to be reached
G21 ; set units to millimeters
G90 ; use absolute coordinates
M82 ; use absolute distances for extrusion
G92 E0
G1 Z0.150 F7800.000
G1 E-6.00000 F2400.00000
G92 E0
G1 X32.258 Y41.365 F7800.000
G1 E6.00000 F2400.00000
G1 X35.250 Y40.605 E6.06186 F1200.000
G1 X48.300 Y40.605 E6.32340
G1 X67.662 Y40.869 E6.71149 F1200.000
G1 X69.865 Y41.301 E6.75648
G1 X87.039 Y48.037 E7.12620
G1 X88.937 Y49.208 E7.17090
G1 X90.305 Y50.970 E7.21560
G1 X91.018 Y53.872 E7.27550
G1 X91.018 Y55.872 E7.31558
G1 X90.621 Y58.067 E7.36028
G1 X88.970 Y60.506 E7.41931
G1 X60.970 Y86.006 E8.17832
G1 X60.664 Y86.268 E8.18640
G1 X52.214 Y93.023 E8.40321
G1 X50.252 Y94.084 E8.44791
G1 X48.300 Y94.395 E8.48752
G1 X35.250 Y94.395 E8.74907
G1 X33.055 Y93.999 E8.79376
G1 X31.138 Y92.858 E8.83846
G1 X29.742 Y91.119 E8.88316
G1 X28.982 Y88.128 E8.94502
G1 X28.982 Y46.872 E9.77185
G1 X29.379 Y44.678 E9.81654
G1 X30.519 Y42.761 E9.86124
G1 X32.212 Y41.402 E9.90474
G1 F6240
G1 X35.250 Y40.605 E8.75694
G1 F6240
G1 X47.709 Y40.605 E4.20474
G1 E3.90474 F2400.00000
G92 E0
G1 X47.614 Y87.442 F7800.000
G1 E6.00000 F2400.00000
G1 X35.936 Y87.442 E6.23406 F1200.000
G1 X35.936 Y47.558 E7.03340
G1 X47.614 Y47.558 E7.26746
G1 X47.614 Y87.382 E8.06560
G1 X47.882 Y87.710 F7800.000
G1 X35.668 Y87.710 E8.31039 F1200.000
G1 X35.668 Y47.290 E9.12047
G1 X47.882 Y47.290 E9.36526
G1 X47.882 Y87.650 E10.17414
G1 X48.150 Y87.978 F7800.000
G1 X35.400 Y87.978 E10.42967 F1200.000
G1 X35.400 Y47.022 E11.25048
G1 X48.150 Y47.022 E11.50601
G1 X48.150 Y87.918 E12.32561
G1 X47.804 Y87.778 F7800.000
G1 X36.553 Y87.358 F7800.000
G1 X36.019 Y86.825 E12.34078 F1200.000
G1 X36.019 Y86.445 E12.34842
G1 X36.933 Y87.358 E12.37440
G1 X37.313 Y87.358 E12.38204
G1 X36.019 Y86.065 E12.41883
G1 X36.019 Y85.685 E12.42647
G1 X37.693 Y87.358 E12.47406
G1 X38.073 Y87.358 E12.48170
G1 X36.019 Y85.305 E12.54009
G1 X36.019 Y84.925 E12.54774
G1 X38.453 Y87.358 E12.61694
G1 X38.833 Y87.358 E12.62458
G1 X36.019 Y84.545 E12.70459
G1 X36.019 Y84.165 E12.71223
G1 X39.213 Y87.358 E12.80304
G1 X39.593 Y87.358 E12.81069
G1 X36.019 Y83.785 E12.91231
G1 X36.019 Y83.405 E12.91995
G1 X39.973 Y87.358 E13.03238
G1 X40.353 Y87.358 E13.04002
G1 X36.019 Y83.025 E13.16325
G1 X36.019 Y82.645 E13.17089
G1 X40.733 Y87.358 E13.30493
G1 X41.113 Y87.358 E13.31257
G1 X36.019 Y82.265 E13.45742
G1 X36.019 Y81.885 E13.46506
G1 X41.493 Y87.358 E13.62071
G1 X41.873 Y87.358 E13.62836
G1 X36.019 Y81.505 E13.79481
G1 X36.019 Y81.125 E13.80246
G1 X42.253 Y87.358 E13.97972
G1 X42.633 Y87.358 E13.98736
G1 X36.019 Y80.745 E14.17543
G1 X36.019 Y80.365 E14.18307
G1 X43.013 Y87.358 E14.38195
G1 X43.393 Y87.358 E14.38959
G1 X36.019 Y79.985 E14.59928
G1 X36.019 Y79.605 E14.60692
G1 X43.773 Y87.358 E14.82741
G1 X44.153 Y87.358 E14.83505
G1 X36.019 Y79.225 E15.06635
G1 X36.019 Y78.845 E15.07399
G1 X44.533 Y87.358 E15.31609
G1 X44.913 Y87.358 E15.32373
G1 X36.019 Y78.465 E15.57664
G1 X36.019 Y78.085 E15.58428
G1 X45.293 Y87.358 E15.84800
G1 X45.673 Y87.358 E15.85564
G1 X36.019 Y77.705 E16.13016
G1 X36.019 Y77.325 E16.13781
G1 X46.053 Y87.358 E16.42313
G1 X46.433 Y87.358 E16.43078
G1 X36.019 Y76.945 E16.72691
G1 X36.019 Y76.565 E16.73455
G1 X46.813 Y87.358 E17.04149
G1 X47.193 Y87.358 E17.04913
G1 X36.019 Y76.185 E17.36688
G1 X36.019 Y75.805 E17.37452
G1 X47.531 Y87.316 E17.70187
G1 X47.531 Y86.936 E17.70951
G1 X36.019 Y75.425 E18.03685
G1 X36.019 Y75.045 E18.04450
G1 X47.531 Y86.556 E18.37184
G1 X47.531 Y86.176 E18.37948
G1 X36.019 Y74.665 E18.70683
G1 X36.019 Y74.285 E18.71447
G1 X47.531 Y85.796 E19.04182
G1 X47.531 Y85.416 E19.04946
G1 X36.019 Y73.905 E19.37680
G1 X36.019 Y73.525 E19.38444
G1 X47.531 Y85.036 E19.71179
G1 X47.531 Y84.656 E19.71943
G1 X36.019 Y73.145 E20.04678
G1 X36.019 Y72.765 E20.05442
G1 X47.531 Y84.276 E20.38177
G1 X47.531 Y83.896 E20.38941
G1 X36.019 Y72.385 E20.71675
G1 X36.019 Y72.005 E20.72439
G1 X47.531 Y83.516 E21.05174
G1 X47.531 Y83.136 E21.05938
G1 X36.019 Y71.625 E21.38673
G1 X36.019 Y71.245 E21.39437
G1 X47.531 Y82.756 E21.72171
G1 X47.531 Y82.376 E21.72935
G1 X36.019 Y70.865 E22.05670
G1 X36.019 Y70.485 E22.06434
G1 X47.531 Y81.996 E22.39169
G1 X47.531 Y81.616 E22.39933
G1 X36.019 Y70.105 E22.72668
G1 X36.019 Y69.725 E22.73432
G1 X47.531 Y81.236 E23.06166
G1 X47.531 Y80.856 E23.06930
G1 X36.019 Y69.345 E23.39665
G1 X36.019 Y68.965 E23.40429
G1 X47.531 Y80.476 E23.73164
G1 X47.531 Y80.096 E23.73928
G1 X36.019 Y68.585 E24.06662
G1 X36.019 Y68.205 E24.07427
G1 X47.531 Y79.716 E24.40161
G1 X47.531 Y79.336 E24.40925
G1 X36.019 Y67.825 E24.73660
G1 X36.019 Y67.445 E24.74424
G1 X47.531 Y78.956 E25.07159
G1 X47.531 Y78.576 E25.07923
G1 X36.019 Y67.065 E25.40657
G1 X36.019 Y66.685 E25.41421
G1 X47.531 Y78.196 E25.74156
G1 X47.531 Y77.816 E25.74920
G1 X36.019 Y66.305 E26.07655
G1 X36.019 Y65.925 E26.08419
G1 X47.531 Y77.436 E26.41153
G1 X47.531 Y77.056 E26.41918
G1 X36.019 Y65.545 E26.74652
G1 X36.019 Y65.165 E26.75416
G1 X47.531 Y76.676 E27.08151
G1 X47.531 Y76.296 E27.08915
G1 X36.019 Y64.785 E27.41650
G1 X36.019 Y64.405 E27.42414
G1 X47.531 Y75.916 E27.75148
G1 X47.531 Y75.536 E27.75912
G1 X36.019 Y64.025 E28.08647
G1 X36.019 Y63.645 E28.09411
G1 X47.531 Y75.156 E28.42146
G1 X47.531 Y74.776 E28.42910
G1 X36.019 Y63.265 E28.75644
G1 X36.019 Y62.885 E28.76409
G1 X47.531 Y74.396 E29.09143
G1 X47.531 Y74.016 E29.09907
G1 X36.019 Y62.505 E29.42642
G1 X36.019 Y62.125 E29.43406
G1 X47.531 Y73.636 E29.76141
G1 X47.531 Y73.256 E29.76905
G1 X36.019 Y61.745 E30.09639
G1 X36.019 Y61.365 E30.10403
G1 X47.531 Y72.876 E30.43138
G1 X47.531 Y72.496 E30.43902
G1 X36.019 Y60.985 E30.76637
G1 X36.019 Y60.605 E30.77401
G1 X47.531 Y72.116 E31.10135
G1 X47.531 Y71.736 E31.10900
G1 X36.019 Y60.225 E31.43634
G1 X36.019 Y59.845 E31.44398
G1 X47.531 Y71.356 E31.77133
G1 X47.531 Y70.976 E31.77897
G1 X36.019 Y59.465 E32.10632
G1 X36.019 Y59.085 E32.11396
G1 X47.531 Y70.596 E32.44130
G1 X47.531 Y70.216 E32.44894
G1 X36.019 Y58.705 E32.77629
G1 X36.019 Y58.325 E32.78393
G1 X47.531 Y69.836 E33.11128
G1 X47.531 Y69.456 E33.11892
G1 X36.019 Y57.945 E33.44626
G1 X36.019 Y57.565 E33.45391
G1 X47.531 Y69.076 E33.78125
G1 X47.531 Y68.696 E33.78889
G1 X36.019 Y57.185 E34.11624
G1 X36.019 Y56.805 E34.12388
G1 X47.531 Y68.316 E34.45123
G1 X47.531 Y67.936 E34.45887
G1 X36.019 Y56.425 E34.78621
G1 X36.019 Y56.045 E34.79385
G1 X47.531 Y67.556 E35.12120
G1 X47.531 Y67.176 E35.12884
G1 X36.019 Y55.665 E35.45619
G1 X36.019 Y55.285 E35.46383
G1 X47.531 Y66.796 E35.79117
G1 X47.531 Y66.416 E35.79882
G1 X36.019 Y54.905 E36.12616
G1 X36.019 Y54.525 E36.13380
G1 X47.531 Y66.036 E36.46115
G1 X47.531 Y65.656 E36.46879
G1 X36.019 Y54.145 E36.79614
G1 X36.019 Y53.765 E36.80378
G1 X47.531 Y65.276 E37.13112
G1 X47.531 Y64.896 E37.13876
G1 X36.019 Y53.385 E37.46611
G1 X36.019 Y53.005 E37.47375
G1 X47.531 Y64.516 E37.80110
G1 X47.531 Y64.136 E37.80874
G1 X36.019 Y52.625 E38.13608
G1 X36.019 Y52.245 E38.14373
G1 X47.531 Y63.756 E38.47107
G1 X47.531 Y63.376 E38.47871
G1 X36.019 Y51.865 E38.80606
G1 X36.019 Y51.484 E38.81370
G1 X47.531 Y62.996 E39.14105
G1 X47.531 Y62.616 E39.14869
G1 X36.019 Y51.104 E39.47603
G1 X36.019 Y50.724 E39.48367
G1 X47.531 Y62.236 E39.81102
G1 X47.531 Y61.856 E39.81866
G1 X36.019 Y50.344 E40.14601
G1 X36.019 Y49.964 E40.15365
G1 X47.531 Y61.476 E40.48099
G1 X47.531 Y61.096 E40.48864
G1 X36.019 Y49.584 E40.81598
G1 X36.019 Y49.204 E40.82362
G1 X47.531 Y60.716 E41.15097
G1 X47.531 Y60.336 E41.15861
G1 X36.019 Y48.824 E41.48596
G1 X36.019 Y48.444 E41.49360
G1 X47.531 Y59.956 E41.82094
G1 X47.531 Y59.576 E41.82858
G1 X36.019 Y48.064 E42.15593
G1 X36.019 Y47.684 E42.16357
G1 X47.531 Y59.196 E42.49092
G1 X47.531 Y58.816 E42.49856
G1 X36.357 Y47.642 E42.81631
G1 X36.737 Y47.642 E42.82395
G1 X47.531 Y58.436 E43.13090
G1 X47.531 Y58.056 E43.13854
G1 X37.117 Y47.642 E43.43468
G1 X37.497 Y47.642 E43.44232
G1 X47.531 Y57.676 E43.72765
G1 X47.531 Y57.296 E43.73529
G1 X37.877 Y47.642 E44.00982
G1 X38.257 Y47.642 E44.01746
G1 X47.531 Y56.916 E44.28118
G1 X47.531 Y56.536 E44.28882
G1 X38.637 Y47.642 E44.54173
G1 X39.017 Y47.642 E44.54938
G1 X47.531 Y56.156 E44.79148
G1 X47.531 Y55.776 E44.79912
G1 X39.397 Y47.642 E45.03042
G1 X39.777 Y47.642 E45.03807
G1 X47.531 Y55.396 E45.25856
G1 X47.531 Y55.016 E45.26620
G1 X40.157 Y47.642 E45.47589
G1 X40.537 Y47.642 E45.48353
G1 X47.531 Y54.636 E45.68241
G1 X47.531 Y54.256 E45.69005
G1 X40.917 Y47.642 E45.87813
G1 X41.297 Y47.642 E45.88577
G1 X47.531 Y53.876 E46.06304
G1 X47.531 Y53.496 E46.07068
G1 X41.677 Y47.642 E46.23715
G1 X42.057 Y47.642 E46.24479
G1 X47.531 Y53.116 E46.40044
G1 X47.531 Y52.736 E46.40809
G1 X42.437 Y47.642 E46.55294
G1 X42.817 Y47.642 E46.56058
G1 X47.531 Y52.356 E46.69462
G1 X47.531 Y51.976 E46.70226
G1 X43.197 Y47.642 E46.82550
G1 X43.577 Y47.642 E46.83314
G1 X47.531 Y51.596 E46.94557
G1 X47.531 Y51.216 E46.95321
G1 X43.957 Y47.642 E47.05484
G1 X44.337 Y47.642 E47.06248
G1 X47.531 Y50.836 E47.15330
G1 X47.531 Y50.456 E47.16094
G1 X44.717 Y47.642 E47.24095
G1 X45.097 Y47.642 E47.24860
G1 X47.531 Y50.076 E47.31780
G1 X47.531 Y49.695 E47.32544
G1 X45.477 Y47.642 E47.38384
G1 X45.857 Y47.642 E47.39148
G1 X47.531 Y49.315 E47.43908
G1 X47.531 Y48.935 E47.44672
G1 X46.237 Y47.642 E47.48351
G1 X46.617 Y47.642 E47.49115
G1 X47.531 Y48.555 E47.51713
G1 X47.531 Y48.175 E47.52477
G1 X46.997 Y47.642 E47.53995
G1 X47.377 Y47.642 E47.54759
G1 X47.531 Y47.795 E47.55196
G1 F6240
G1 X47.377 Y47.642 E47.47257
G1 F6240
G1 X46.997 Y47.642 E47.33373
G1 F6240
G1 X47.531 Y48.175 E47.05799
G1 F6240
G1 X47.531 Y48.555 E46.91914
G1 F6240
G1 X46.617 Y47.642 E46.44704
G1 F6240
G1 X46.237 Y47.642 E46.30819
G1 F6240
G1 X47.531 Y48.935 E45.63974
G1 F6240
G1 X47.531 Y49.315 E45.50089
G1 F6240
G1 X45.857 Y47.642 E44.63607
G1 F6240
G1 X45.477 Y47.642 E44.49723
G1 F6240
G1 X47.531 Y49.695 E43.43605
G1 F6240
G1 X47.531 Y50.076 E43.29720
G1 F6240
G1 X45.097 Y47.642 E42.03967
G1 F6240
G1 X44.717 Y47.642 E41.90082
G1 F6240
G1 X44.811 Y47.736 E41.85196
G1 E41.55196 F2400.00000
G92 E0
G1 X53.102 Y58.965 F7800.000
G1 E6.00000 F2400.00000
G1 X52.761 Y58.795 E6.00764 F1200.000
G1 X52.411 Y58.370 E6.01867
G1 X52.105 Y57.795 E6.03172
G1 X51.924 Y57.168 E6.04480
G1 X51.878 Y56.516 E6.05789
G1 X51.968 Y55.868 E6.07102
G1 X52.217 Y55.203 E6.08523
G1 X52.574 Y54.654 E6.09836
G1 X53.035 Y54.194 E6.11141
G1 X53.533 Y53.865 E6.12338
G1 X54.136 Y53.620 E6.13642
G1 X54.781 Y53.506 E6.14955 F1200.000
G1 X55.490 Y53.537 E6.16376
G1 X56.120 Y53.707 E6.17685
G1 X56.656 Y53.974 E6.18886
G1 X57.208 Y54.413 E6.20299
G1 X57.589 Y54.875 E6.21499
G1 X57.896 Y55.451 E6.22808
G1 X58.085 Y56.133 E6.24225
G1 X58.122 Y56.730 E6.25426
G1 X58.032 Y57.377 E6.26735
G1 X57.784 Y58.040 E6.28152
G1 X57.462 Y58.544 E6.29351
G1 X57.044 Y58.981 E6.30563
G1 X56.687 Y59.121 E6.31332
G1 X53.162 Y58.967 E6.38403
G1 X53.171 Y58.700 F7800.000
G1 X52.931 Y58.580 E6.38938 F1200.000
G1 X52.635 Y58.220 E6.39873
G1 X52.354 Y57.694 E6.41068
G1 X52.189 Y57.121 E6.42264
G1 X52.147 Y56.525 E6.43460
G1 X52.230 Y55.934 E6.44657
G1 X52.457 Y55.325 E6.45961
G1 X52.783 Y54.824 E6.47158
G1 X53.205 Y54.403 E6.48353
G1 X53.658 Y54.103 E6.49441
G1 X54.211 Y53.879 E6.50636
G1 X54.799 Y53.775 E6.51834 F1200.000
G1 X55.448 Y53.803 E6.53136
G1 X56.025 Y53.958 E6.54333
G1 X56.512 Y54.201 E6.55423
G1 X57.019 Y54.605 E6.56723
G1 X57.365 Y55.025 E6.57813
G1 X57.646 Y55.551 E6.59009
G1 X57.820 Y56.177 E6.60311
G1 X57.853 Y56.720 E6.61401
G1 X57.770 Y57.311 E6.62597
G1 X57.543 Y57.919 E6.63899
G1 X57.251 Y58.378 E6.64989
G1 X56.891 Y58.753 E6.66030
G1 X56.641 Y58.851 E6.66568
G1 X53.230 Y58.702 E6.73410
G1 X52.970 Y58.877 F7800.000
G1 X53.604 Y59.369 F7800.000
G1 X53.644 Y59.256 E6.73650 F1200.000
G1 X56.343 Y59.374 E6.79065
G1 X56.064 Y59.922 E6.80297
G1 X56.064 Y71.167 E7.02834
G1 X55.584 Y70.687 E7.04196
G1 X54.416 Y70.687 E7.06537
G1 X53.936 Y71.167 E7.07898
G1 X53.936 Y59.926 E7.30428
G1 X53.690 Y59.432 E7.31534
G1 X53.653 Y59.404 E7.31626
G1 X53.668 Y80.955 F7800.000
G1 X53.668 Y59.989 E7.73646 F1200.000
G1 X53.480 Y59.610 E7.74494
G1 X52.773 Y59.096 E7.76245
G1 X52.307 Y58.579 E7.77640
G1 X51.959 Y57.976 E7.79034
G1 X51.744 Y57.314 E7.80429
G1 X51.672 Y56.622 E7.81823
G1 X51.744 Y55.930 E7.83218
G1 X51.959 Y55.269 E7.84612
G1 X52.307 Y54.666 E7.86007
G1 X52.773 Y54.149 E7.87402
G1 X53.336 Y53.740 E7.88796
G1 X53.972 Y53.457 E7.90191
G1 X54.651 Y53.312 E7.91583
G1 X55.366 Y53.316 E7.93016
G1 X56.028 Y53.457 E7.94374
G1 X56.664 Y53.740 E7.95768
G1 X57.227 Y54.149 E7.97163
G1 X57.693 Y54.666 E7.98558
G1 X58.041 Y55.269 E7.99952
G1 X58.256 Y55.930 E8.01347
G1 X58.328 Y56.622 E8.02741
G1 X58.256 Y57.314 E8.04136
G1 X58.041 Y57.976 E8.05530
G1 X57.693 Y58.579 E8.06925
G1 X57.227 Y59.096 E8.08320
G1 X56.526 Y59.605 E8.10056
G1 X56.332 Y59.986 E8.10913
G1 X56.332 Y80.955 E8.52937
G1 X55.968 Y80.955 E8.53667
G1 X55.968 Y71.449 E8.72717
G1 X55.473 Y70.955 E8.74120
G1 X54.527 Y70.955 E8.76016
G1 X54.032 Y71.449 E8.77418
G1 X54.032 Y80.955 E8.96468
G1 X53.728 Y80.955 E8.97078
G1 X53.400 Y81.222 F7800.000
G1 X53.400 Y60.051 E9.39508 F1200.000
G1 X53.269 Y59.788 E9.40099
G1 X52.593 Y59.296 E9.41774
G1 X52.089 Y58.737 E9.43282
G1 X51.713 Y58.086 E9.44789
G1 X51.481 Y57.370 E9.46297
G1 X51.402 Y56.622 E9.47804
G1 X51.481 Y55.874 E9.49311
G1 X51.713 Y55.159 E9.50819
G1 X52.089 Y54.508 E9.52326
G1 X52.593 Y53.949 E9.53834
G1 X53.201 Y53.507 E9.55341
G1 X53.888 Y53.201 E9.56849
G1 X54.624 Y53.044 E9.58355
G1 X55.395 Y53.048 E9.59901
G1 X56.112 Y53.201 E9.61370
G1 X56.799 Y53.507 E9.62877
G1 X57.407 Y53.949 E9.64385
G1 X57.911 Y54.508 E9.65892
G1 X58.287 Y55.159 E9.67400
G1 X58.519 Y55.874 E9.68907
G1 X58.598 Y56.622 E9.70414
G1 X58.519 Y57.370 E9.71922
G1 X58.287 Y58.086 E9.73429
G1 X57.911 Y58.737 E9.74937
G1 X57.407 Y59.296 E9.76444
G1 X56.736 Y59.784 E9.78108
G1 X56.600 Y60.050 E9.78707
G1 X56.600 Y81.222 E10.21139
G1 X55.700 Y81.222 E10.22943
G1 X55.700 Y71.560 E10.42307
G1 X55.362 Y71.222 E10.43265
G1 X54.638 Y71.222 E10.44717
G1 X54.300 Y71.560 E10.45674
G1 X54.300 Y81.222 E10.65039
G1 X53.460 Y81.222 E10.66722
G1 X53.600 Y80.876 F7800.000
G1 X53.850 Y80.821 F7800.000
G1 X53.850 Y71.442 E10.85518 F1200.000
G1 X54.019 Y70.703 F7800.000
G1 X54.167 Y70.850 E10.85949 F1200.000
G1 X54.362 Y70.655 E10.86517
G1 X54.019 Y70.313 E10.87516
G1 X54.019 Y69.923 E10.88319
G1 X54.699 Y70.603 E10.90300
G1 X55.089 Y70.603 E10.91103
G1 X54.019 Y69.534 E10.94220
G1 X54.019 Y69.144 E10.95024
G1 X55.478 Y70.603 E10.99277
G1 X55.981 Y70.716 E11.00338
G1 X54.019 Y68.755 E11.06055
G1 X54.019 Y68.365 E11.06859
G1 X55.981 Y70.326 E11.12576
G1 X55.981 Y69.936 E11.13379
G1 X54.019 Y67.975 E11.19097
G1 X54.019 Y67.586 E11.19900
G1 X55.981 Y69.547 E11.25617
G1 X55.981 Y69.157 E11.26420
G1 X54.019 Y67.196 E11.32138
G1 X54.019 Y66.807 E11.32941
G1 X55.981 Y68.768 E11.38659
G1 X55.981 Y68.378 E11.39462
G1 X54.019 Y66.417 E11.45179
G1 X54.019 Y66.027 E11.45982
G1 X55.981 Y67.988 E11.51700
G1 X55.981 Y67.599 E11.52503
G1 X54.019 Y65.638 E11.58220
G1 X54.019 Y65.248 E11.59024
G1 X55.981 Y67.209 E11.64741
G1 X55.981 Y66.820 E11.65544
G1 X54.019 Y64.859 E11.71262
G1 X54.019 Y64.469 E11.72065
G1 X55.981 Y66.430 E11.77782
G1 X55.981 Y66.041 E11.78586
G1 X54.019 Y64.079 E11.84303
G1 X54.019 Y63.690 E11.85106
G1 X55.981 Y65.651 E11.90824
G1 X55.981 Y65.261 E11.91627
G1 X54.019 Y63.300 E11.97344
G1 X54.019 Y62.911 E11.98147
G1 X55.981 Y64.872 E12.03865
G1 X55.981 Y64.482 E12.04668
G1 X54.019 Y62.521 E12.10386
G1 X54.019 Y62.132 E12.11189
G1 X55.981 Y64.093 E12.16906
G1 X55.981 Y63.703 E12.17709
G1 X54.019 Y61.742 E12.23427
G1 X54.019 Y61.352 E12.24230
G1 X55.981 Y63.313 E12.29948
G1 X55.981 Y62.924 E12.30751
G1 X54.019 Y60.963 E12.36468
G1 X54.019 Y60.573 E12.37271
