; generated by Slic3r 1.2.9 on 2019-05-14 at 08:43:00

; external perimeters extrusion width = 0.10mm
; perimeters extrusion width = 0.20mm
; infill extrusion width = 0.67mm
; solid infill extrusion width = 0.67mm
; top infill extrusion width = 0.67mm

M107
M104 S205 ; set temperature
G28 ; home all axes
G1 Z5 F5000 ; lift nozzle

M109 S205 ; wait for temperature to be reached
G21 ; set units to millimeters
G90 ; use absolute coordinates
M82 ; use absolute distances for extrusion
G92 E0
G1 Z0.150 F7800.000
G1 E-6.00000 F2400.00000
G92 E0
G1 X40.569 Y40.983 F7800.000
G1 E6.00000 F2400.00000
G1 X42.308 Y39.587 E6.04470 F1200.000
G1 X45.300 Y38.827 E6.10656
G1 X74.700 Y38.827 E6.69578
G1 X76.895 Y39.224 E6.74048
G1 X78.812 Y40.364 E6.78518 F1200.000
G1 X80.208 Y42.103 E6.82988
G1 X80.968 Y45.095 E6.89174
G1 X80.959 Y52.832 E7.04680
G1 X78.946 Y90.242 E7.79764
G1 X78.432 Y92.412 E7.84234
G1 X77.191 Y94.265 E7.88704
G1 X75.379 Y95.566 E7.93174
G1 X72.688 Y96.173 E7.98703
G1 X50.000 Y96.173 E8.44173
G1 X47.805 Y95.776 E8.48643
G1 X45.888 Y94.636 E8.53113
G1 X44.492 Y92.897 E8.57582
G1 X43.781 Y90.686 E8.62236
G1 X39.081 Y53.276 E9.37801
G1 X39.032 Y52.495 E9.39370
G1 X39.032 Y45.095 E9.54201
G1 X39.429 Y42.900 E9.58671
G1 X40.539 Y41.035 E9.63020
G1 F6240
G1 X42.308 Y39.587 E8.79471
G1 F6240
G1 X45.300 Y38.827 E7.66690
G1 F6240
G1 X55.527 Y38.827 E3.93020
G1 E3.63020 F2400.00000
G92 E0
G1 X65.464 Y87.591 F7800.000
G1 E6.00000 F2400.00000
G1 X72.002 Y87.591 E6.13102 F1200.000
G1 X72.002 Y89.219 E6.16367
G1 X50.686 Y89.219 E6.59088
G1 X50.686 Y59.481 E7.18689
G1 X65.464 Y59.481 E7.48308
G1 X65.464 Y87.531 E8.04525
G1 X65.732 Y87.323 F7800.000
G1 X72.270 Y87.323 E8.17627 F1200.000
G1 X72.270 Y89.487 E8.21965
G1 X50.418 Y89.487 E8.65760
G1 X50.418 Y59.213 E9.26434
G1 X65.732 Y59.213 E9.57127
G1 X65.732 Y87.263 E10.13344
G1 X66.000 Y87.055 F7800.000
G1 X72.538 Y87.055 E10.26446 F1200.000
G1 X72.538 Y89.755 E10.31857
G1 X50.150 Y89.755 E10.76725
G1 X50.150 Y58.945 E11.38473
G1 X66.000 Y58.945 E11.70239
G1 X66.000 Y86.995 E12.26456
G1 X66.000 Y87.455 F7800.000
G1 X66.565 Y89.136 F7800.000
G1 X50.769 Y73.340 E12.71555 F1200.000
G1 X50.769 Y73.721 E12.72326
G1 X66.184 Y89.136 E13.16336
G1 X65.802 Y89.136 E13.17106
G1 X50.769 Y74.103 E13.60027
G1 X50.769 Y74.484 E13.60797
G1 X65.421 Y89.136 E14.02628
G1 X65.039 Y89.136 E14.03399
G1 X50.769 Y74.866 E14.44141
G1 X50.769 Y75.247 E14.44911
G1 X64.658 Y89.136 E14.84564
G1 X64.276 Y89.136 E14.85334
G1 X50.769 Y75.629 E15.23897
G1 X50.769 Y76.010 E15.24668
G1 X63.895 Y89.136 E15.62142
G1 X63.513 Y89.136 E15.62912
G1 X50.769 Y76.392 E15.99297
G1 X50.769 Y76.773 E16.00067
G1 X63.132 Y89.136 E16.35363
G1 X62.750 Y89.136 E16.36133
G1 X50.769 Y77.155 E16.70340
G1 X50.769 Y77.536 E16.71110
G1 X62.369 Y89.136 E17.04227
G1 X61.987 Y89.136 E17.04997
G1 X50.769 Y77.918 E17.37025
G1 X50.769 Y78.299 E17.37795
G1 X61.606 Y89.136 E17.68734
G1 X61.224 Y89.136 E17.69504
G1 X50.769 Y78.681 E17.99353
G1 X50.769 Y79.062 E18.00123
G1 X60.843 Y89.136 E18.28883
G1 X60.461 Y89.136 E18.29653
G1 X50.769 Y79.444 E18.57324
G1 X50.769 Y79.826 E18.58094
G1 X60.079 Y89.136 E18.84676
G1 X59.698 Y89.136 E18.85446
G1 X50.769 Y80.207 E19.10938
G1 X50.769 Y80.589 E19.11708
G1 X59.316 Y89.136 E19.36111
G1 X58.935 Y89.136 E19.36881
G1 X50.769 Y80.970 E19.60194
G1 X50.769 Y81.352 E19.60965
G1 X58.553 Y89.136 E19.83189
G1 X58.172 Y89.136 E19.83959
G1 X50.769 Y81.733 E20.05094
G1 X50.769 Y82.115 E20.05864
G1 X57.790 Y89.136 E20.25910
G1 X57.409 Y89.136 E20.26680
G1 X50.769 Y82.496 E20.45636
G1 X50.769 Y82.878 E20.46406
G1 X57.027 Y89.136 E20.64273
G1 X56.646 Y89.136 E20.65044
G1 X50.769 Y83.259 E20.81821
G1 X50.769 Y83.641 E20.82592
G1 X56.264 Y89.136 E20.98280
G1 X55.883 Y89.136 E20.99050
G1 X50.769 Y84.022 E21.13649
G1 X50.769 Y84.404 E21.14420
G1 X55.501 Y89.136 E21.27929
G1 X55.120 Y89.136 E21.28700
G1 X50.769 Y84.785 E21.41120
G1 X50.769 Y85.167 E21.41890
G1 X54.738 Y89.136 E21.53221
G1 X54.357 Y89.136 E21.53992
G1 X50.769 Y85.548 E21.64234
G1 X50.769 Y85.930 E21.65004
G1 X53.975 Y89.136 E21.74156
G1 X53.594 Y89.136 E21.74927
G1 X50.769 Y86.311 E21.82990
G1 X50.769 Y86.693 E21.83760
G1 X53.212 Y89.136 E21.90734
G1 X52.831 Y89.136 E21.91505
G1 X50.769 Y87.074 E21.97389
G1 X50.769 Y87.456 E21.98160
G1 X52.449 Y89.136 E22.02955
G1 X52.068 Y89.136 E22.03725
G1 X50.769 Y87.837 E22.07431
G1 X50.769 Y88.219 E22.08202
G1 X51.686 Y89.136 E22.10818
G1 X51.304 Y89.136 E22.11589
G1 X50.769 Y88.601 E22.13116
G1 X50.769 Y88.982 E22.13886
G1 X50.923 Y89.136 E22.14325
G1 X71.918 Y88.002 F7800.000
G1 X71.590 Y87.674 E22.15261 F1200.000
G1 X71.209 Y87.674 E22.16031
G1 X71.918 Y88.384 E22.18056
G1 X71.918 Y88.765 E22.18827
G1 X70.827 Y87.674 E22.21941
G1 X70.446 Y87.674 E22.22712
G1 X71.892 Y89.121 E22.26842
G1 X71.525 Y89.136 E22.27584
G1 X70.064 Y87.674 E22.31756
G1 X69.683 Y87.674 E22.32526
G1 X71.144 Y89.136 E22.36697
G1 X70.762 Y89.136 E22.37468
G1 X69.301 Y87.674 E22.41639
G1 X68.920 Y87.674 E22.42409
G1 X70.381 Y89.136 E22.46581
G1 X69.999 Y89.136 E22.47351
G1 X68.538 Y87.674 E22.51523
G1 X68.156 Y87.674 E22.52293
G1 X69.618 Y89.136 E22.56464
G1 X69.236 Y89.136 E22.57235
G1 X67.775 Y87.674 E22.61406
G1 X67.393 Y87.674 E22.62176
G1 X68.854 Y89.136 E22.66348
G1 X68.473 Y89.136 E22.67118
G1 X67.012 Y87.674 E22.71290
G1 X66.630 Y87.674 E22.72060
G1 X68.091 Y89.136 E22.76231
G1 X67.710 Y89.136 E22.77002
G1 X66.249 Y87.674 E22.81173
G1 X65.867 Y87.674 E22.81943
G1 X67.328 Y89.136 E22.86115
G1 X66.947 Y89.136 E22.86885
G1 X50.769 Y72.958 E23.33074
G1 X50.769 Y72.577 E23.33844
G1 X65.381 Y87.188 E23.75560
G1 X65.381 Y86.806 E23.76331
G1 X50.769 Y72.195 E24.18047
G1 X50.769 Y71.814 E24.18817
G1 X65.381 Y86.425 E24.60534
G1 X65.381 Y86.043 E24.61304
G1 X50.769 Y71.432 E25.03021
G1 X50.769 Y71.051 E25.03791
G1 X65.381 Y85.662 E25.45507
G1 X65.381 Y85.280 E25.46277
G1 X50.769 Y70.669 E25.87994
G1 X50.769 Y70.287 E25.88764
G1 X65.381 Y84.899 E26.30481
G1 X65.381 Y84.517 E26.31251
G1 X50.769 Y69.906 E26.72967
G1 X50.769 Y69.524 E26.73738
G1 X65.381 Y84.135 E27.15454
G1 X65.381 Y83.754 E27.16224
G1 X50.769 Y69.143 E27.57941
G1 X50.769 Y68.761 E27.58711
G1 X65.381 Y83.372 E28.00427
G1 X65.381 Y82.991 E28.01198
G1 X50.769 Y68.380 E28.42914
G1 X50.769 Y67.998 E28.43684
G1 X65.381 Y82.609 E28.85401
G1 X65.381 Y82.228 E28.86171
G1 X50.769 Y67.617 E29.27887
G1 X50.769 Y67.235 E29.28658
G1 X65.381 Y81.846 E29.70374
G1 X65.381 Y81.465 E29.71144
G1 X50.769 Y66.854 E30.12861
G1 X50.769 Y66.472 E30.13631
G1 X65.381 Y81.083 E30.55348
G1 X65.381 Y80.702 E30.56118
G1 X50.769 Y66.091 E30.97834
G1 X50.769 Y65.709 E30.98604
G1 X65.381 Y80.320 E31.40321
G1 X65.381 Y79.939 E31.41091
G1 X50.769 Y65.328 E31.82808
G1 X50.769 Y64.946 E31.83578
G1 X65.381 Y79.557 E32.25294
G1 X65.381 Y79.176 E32.26065
G1 X50.769 Y64.565 E32.67781
G1 X50.769 Y64.183 E32.68551
G1 X65.381 Y78.794 E33.10268
G1 X65.381 Y78.413 E33.11038
G1 X50.769 Y63.802 E33.52754
G1 X50.769 Y63.420 E33.53525
G1 X65.381 Y78.031 E33.95241
G1 X65.381 Y77.650 E33.96011
G1 X50.769 Y63.039 E34.37728
G1 X50.769 Y62.657 E34.38498
G1 X65.381 Y77.268 E34.80214
G1 X65.381 Y76.887 E34.80985
G1 X50.769 Y62.276 E35.22701
G1 X50.769 Y61.894 E35.23471
G1 X65.381 Y76.505 E35.65188
G1 X65.381 Y76.124 E35.65958
G1 X50.769 Y61.512 E36.07675
G1 X50.769 Y61.131 E36.08445
G1 X65.381 Y75.742 E36.50161
G1 X65.381 Y75.360 E36.50931
G1 X50.769 Y60.749 E36.92648
G1 X50.769 Y60.368 E36.93418
G1 X65.381 Y74.979 E37.35135
G1 X65.381 Y74.597 E37.35905
G1 X50.769 Y59.986 E37.77621
G1 X50.769 Y59.605 E37.78392
G1 X65.381 Y74.216 E38.20108
G1 X65.381 Y73.834 E38.20878
G1 X51.111 Y59.564 E38.61621
G1 X51.492 Y59.564 E38.62391
G1 X65.381 Y73.453 E39.02044
G1 X65.381 Y73.071 E39.02814
G1 X51.874 Y59.564 E39.41378
G1 X52.255 Y59.564 E39.42148
G1 X65.381 Y72.690 E39.79623
G1 X65.381 Y72.308 E39.80393
G1 X52.637 Y59.564 E40.16779
G1 X53.018 Y59.564 E40.17549
G1 X65.381 Y71.927 E40.52845
G1 X65.381 Y71.545 E40.53615
G1 X53.400 Y59.564 E40.87822
G1 X53.781 Y59.564 E40.88592
G1 X65.381 Y71.164 E41.21709
G1 X65.381 Y70.782 E41.22480
G1 X54.163 Y59.564 E41.54508
G1 X54.544 Y59.564 E41.55278
G1 X65.381 Y70.401 E41.86217
G1 X65.381 Y70.019 E41.86987
G1 X54.926 Y59.564 E42.16837
G1 X55.307 Y59.564 E42.17607
G1 X65.381 Y69.638 E42.46367
G1 X65.381 Y69.256 E42.47137
G1 X55.689 Y59.564 E42.74808
G1 X56.070 Y59.564 E42.75579
G1 X65.381 Y68.875 E43.02160
G1 X65.381 Y68.493 E43.02930
G1 X56.452 Y59.564 E43.28423
G1 X56.833 Y59.564 E43.29193
G1 X65.381 Y68.112 E43.53596
G1 X65.381 Y67.730 E43.54366
G1 X57.215 Y59.564 E43.77680
G1 X57.596 Y59.564 E43.78450
G1 X65.381 Y67.349 E44.00675
G1 X65.381 Y66.967 E44.01445
G1 X57.978 Y59.564 E44.22580
G1 X58.360 Y59.564 E44.23351
G1 X65.381 Y66.585 E44.43396
G1 X65.381 Y66.204 E44.44167
G1 X58.741 Y59.564 E44.63123
G1 X59.123 Y59.564 E44.63894
G1 X65.381 Y65.822 E44.81761
G1 X65.381 Y65.441 E44.82531
G1 X59.504 Y59.564 E44.99309
G1 X59.886 Y59.564 E45.00079
G1 X65.381 Y65.059 E45.15768
G1 X65.381 Y64.678 E45.16538
G1 X60.267 Y59.564 E45.31138
G1 X60.649 Y59.564 E45.31908
G1 X65.381 Y64.296 E45.45418
G1 X65.381 Y63.915 E45.46188
G1 X61.030 Y59.564 E45.58609
G1 X61.412 Y59.564 E45.59379
G1 X65.381 Y63.533 E45.70711
G1 X65.381 Y63.152 E45.71481
G1 X61.793 Y59.564 E45.81724
G1 X62.175 Y59.564 E45.82494
G1 X65.381 Y62.770 E45.91647
G1 X65.381 Y62.389 E45.92417
G1 X62.556 Y59.564 E46.00481
G1 X62.938 Y59.564 E46.01251
G1 X65.381 Y62.007 E46.08225
G1 X65.381 Y61.626 E46.08995
G1 X63.319 Y59.564 E46.14881
G1 X63.701 Y59.564 E46.15651
G1 X65.381 Y61.244 E46.20447
G1 X65.381 Y60.863 E46.21217
G1 X64.082 Y59.564 E46.24923
G1 X64.464 Y59.564 E46.25694
G1 X65.381 Y60.481 E46.28311
G1 X65.381 Y60.100 E46.29081
G1 X64.845 Y59.564 E46.30609
G1 X65.227 Y59.564 E46.31379
G1 X65.381 Y59.718 E46.31818
G1 F6240
G1 X65.227 Y59.564 E46.23880
G1 F6240
G1 X64.845 Y59.564 E46.09939
G1 F6240
G1 X65.381 Y60.100 E45.82287
G1 F6240
G1 X65.381 Y60.481 E45.68347
G1 F6240
G1 X64.464 Y59.564 E45.20979
G1 F6240
G1 X64.082 Y59.564 E45.07039
G1 F6240
G1 X65.381 Y60.863 E44.39958
G1 F6240
G1 X65.381 Y61.244 E44.26018
G1 F6240
G1 X63.701 Y59.564 E43.39222
G1 F6240
G1 X63.319 Y59.564 E43.25281
G1 F6240
G1 X65.381 Y61.626 E42.18771
G1 F6240
G1 X65.381 Y62.007 E42.04831
G1 F6240
G1 X62.938 Y59.564 E40.78606
G1 F6240
G1 X62.556 Y59.564 E40.64666
G1 F6240
G1 X62.611 Y59.620 E40.61818
G1 E40.31818 F2400.00000
G92 E0
G1 X51.737 Y51.000 F7800.000
G1 E6.00000 F2400.00000
G1 X48.263 Y51.000 E6.06963 F1200.000
G1 X47.982 Y50.875 E6.07580
G1 X47.669 Y50.527 E6.08517
G1 X47.334 Y49.947 E6.09861
G1 X47.151 Y49.353 E6.11105
G1 X47.096 Y48.763 E6.12294
G1 X47.153 Y48.223 E6.13382
G1 X47.333 Y47.644 E6.14597
G1 X47.631 Y47.115 E6.15814
G1 X48.032 Y46.659 E6.17031
G1 X48.520 Y46.296 E6.18249
G1 X49.133 Y46.023 E6.19595
G1 X49.729 Y45.903 E6.20813 F1200.000
G1 X50.336 Y45.910 E6.22028
G1 X50.868 Y46.023 E6.23118
G1 X51.479 Y46.296 E6.24460
G1 X51.919 Y46.615 E6.25550
G1 X52.331 Y47.062 E6.26767
G1 X52.666 Y47.642 E6.28111
G1 X52.834 Y48.160 E6.29201
G1 X52.904 Y48.763 E6.30418
G1 X52.834 Y49.429 E6.31761
G1 X52.666 Y49.947 E6.32851
G1 X52.369 Y50.475 E6.34066
G1 X52.019 Y50.874 E6.35130
G1 X51.792 Y50.976 E6.35629
G1 X51.587 Y51.371 F7800.000
G1 X58.094 Y47.909 F7800.000
G1 X57.906 Y47.909 E6.36005 F1200.000
G1 X57.583 Y47.835 E6.36670
G1 X57.282 Y47.655 E6.37373
G1 X56.981 Y47.311 E6.38288
G1 X56.860 Y47.513 E6.38760
G1 X56.607 Y47.735 E6.39434
G1 X56.403 Y47.838 E6.39892
G1 X56.094 Y47.909 E6.40528
G1 X55.906 Y47.909 E6.40905
G1 X55.583 Y47.835 E6.41570
G1 X55.282 Y47.655 E6.42273
G1 X55.060 Y47.402 E6.42946
G1 X54.956 Y47.198 E6.43405
G1 X54.886 Y46.889 E6.44041
G1 X54.886 Y46.701 E6.44418
G1 X54.960 Y46.378 E6.45082
G1 X55.140 Y46.077 E6.45785
G1 X55.393 Y45.855 E6.46459
G1 X55.597 Y45.751 E6.46918
G1 X55.906 Y45.681 E6.47554
G1 X56.094 Y45.681 E6.47931
G1 X56.417 Y45.755 E6.48595
G1 X56.718 Y45.935 E6.49298
G1 X57.019 Y46.279 E6.50213
G1 X57.140 Y46.077 E6.50685
G1 X57.393 Y45.855 E6.51359
G1 X57.597 Y45.751 E6.51817
G1 X57.906 Y45.681 E6.52453
G1 X58.094 Y45.681 E6.52830
G1 X58.417 Y45.755 E6.53495
G1 X58.718 Y45.935 E6.54197
G1 X59.019 Y46.279 E6.55113
G1 X59.140 Y46.077 E6.55584
G1 X59.393 Y45.855 E6.56258
G1 X59.597 Y45.751 E6.56717
G1 X59.906 Y45.681 E6.57353
G1 X60.094 Y45.681 E6.57729
G1 X60.417 Y45.755 E6.58394
G1 X60.718 Y45.935 E6.59097
G1 X61.019 Y46.279 E6.60012
G1 X61.140 Y46.077 E6.60484
G1 X61.393 Y45.855 E6.61158
G1 X61.597 Y45.751 E6.61616
G1 X61.906 Y45.681 E6.62252
G1 X62.094 Y45.681 E6.62629
G1 X62.417 Y45.755 E6.63294
G1 X62.718 Y45.935 E6.63996
G1 X63.019 Y46.279 E6.64912
G1 X63.140 Y46.077 E6.65383
G1 X63.393 Y45.855 E6.66057
G1 X63.597 Y45.751 E6.66516
G1 X63.906 Y45.681 E6.67152
G1 X64.094 Y45.681 E6.67528
G1 X64.417 Y45.755 E6.68193
G1 X64.718 Y45.935 E6.68896
G1 X65.019 Y46.279 E6.69811
G1 X65.140 Y46.077 E6.70283
G1 X65.393 Y45.855 E6.70957
G1 X65.597 Y45.751 E6.71415
G1 X65.906 Y45.681 E6.72051
G1 X66.094 Y45.681 E6.72428
G1 X66.417 Y45.755 E6.73093
G1 X66.718 Y45.935 E6.73795
G1 X67.019 Y46.279 E6.74711
G1 X67.140 Y46.077 E6.75182
G1 X67.393 Y45.855 E6.75856
G1 X67.597 Y45.751 E6.76315
G1 X67.906 Y45.681 E6.76951
G1 X68.094 Y45.681 E6.77327
G1 X68.417 Y45.755 E6.77992
G1 X68.718 Y45.935 E6.78695
G1 X69.019 Y46.279 E6.79610
G1 X69.140 Y46.077 E6.80082
G1 X69.393 Y45.855 E6.80756
G1 X69.597 Y45.751 E6.81214
G1 X69.906 Y45.681 E6.81850
G1 X70.094 Y45.681 E6.82227
G1 X70.417 Y45.755 E6.82892
G1 X70.718 Y45.935 E6.83594
G1 X71.019 Y46.279 E6.84510
G1 X71.140 Y46.077 E6.84981
G1 X71.393 Y45.855 E6.85655
G1 X71.597 Y45.751 E6.86114
G1 X71.906 Y45.681 E6.86750
G1 X72.094 Y45.681 E6.87126
G1 X72.417 Y45.755 E6.87791
G1 X72.718 Y45.935 E6.88494
G1 X72.940 Y46.188 E6.89168
G1 X73.044 Y46.392 E6.89627
G1 X73.114 Y46.701 E6.90262
G1 X73.114 Y46.889 E6.90639
G1 X73.040 Y47.212 E6.91304
G1 X72.860 Y47.513 E6.92006
G1 X72.607 Y47.735 E6.92681
G1 X72.403 Y47.838 E6.93139
G1 X72.094 Y47.909 E6.93775
G1 X71.906 Y47.909 E6.94152
G1 X71.583 Y47.835 E6.94816
G1 X71.282 Y47.655 E6.95519
G1 X70.981 Y47.311 E6.96435
G1 X70.860 Y47.513 E6.96906
G1 X70.607 Y47.735 E6.97580
G1 X70.403 Y47.838 E6.98039
G1 X70.094 Y47.909 E6.98675
G1 X69.906 Y47.909 E6.99051
G1 X69.583 Y47.835 E6.99716
G1 X69.282 Y47.655 E7.00419
G1 X68.981 Y47.311 E7.01335
G1 X68.860 Y47.513 E7.01806
G1 X68.607 Y47.735 E7.02480
G1 X68.403 Y47.838 E7.02939
G1 X68.094 Y47.909 E7.03574
G1 X67.906 Y47.909 E7.03951
G1 X67.583 Y47.835 E7.04616
G1 X67.282 Y47.655 E7.05319
G1 X66.981 Y47.311 E7.06234
G1 X66.860 Y47.513 E7.06706
G1 X66.607 Y47.735 E7.07380
G1 X66.403 Y47.838 E7.07838
G1 X66.094 Y47.909 E7.08474
G1 X65.906 Y47.909 E7.08851
G1 X65.583 Y47.835 E7.09515
G1 X65.282 Y47.655 E7.10218
G1 X64.981 Y47.311 E7.11134
G1 X64.860 Y47.513 E7.11605
G1 X64.607 Y47.735 E7.12279
G1 X64.403 Y47.838 E7.12738
G1 X64.094 Y47.909 E7.13374
G1 X63.906 Y47.909 E7.13751
G1 X63.583 Y47.835 E7.14415
G1 X63.282 Y47.655 E7.15118
G1 X62.981 Y47.311 E7.16034
G1 X62.860 Y47.513 E7.16505
G1 X62.607 Y47.735 E7.17179
G1 X62.403 Y47.838 E7.17638
G1 X62.094 Y47.909 E7.18274
G1 X61.906 Y47.909 E7.18650
G1 X61.583 Y47.835 E7.19315
G1 X61.282 Y47.655 E7.20018
G1 X60.981 Y47.311 E7.20933
G1 X60.860 Y47.513 E7.21405
G1 X60.607 Y47.735 E7.22079
G1 X60.403 Y47.838 E7.22537
G1 X60.094 Y47.909 E7.23173
G1 X59.906 Y47.909 E7.23550
G1 X59.583 Y47.835 E7.24215
G1 X59.282 Y47.655 E7.24918
G1 X58.981 Y47.311 E7.25833
G1 X58.860 Y47.513 E7.26304
G1 X58.607 Y47.735 E7.26978
G1 X58.403 Y47.838 E7.27437
G1 X58.153 Y47.896 E7.27953
G1 F6240
G1 X57.906 Y47.909 E7.18932
G1 F6240
G1 X57.583 Y47.835 E7.06813
G1 F6240
G1 X57.282 Y47.655 E6.94001
G1 F6240
G1 X56.981 Y47.311 E6.77310
G1 F6240
G1 X56.860 Y47.513 E6.68719
G1 F6240
G1 X56.607 Y47.735 E6.56429
G1 F6240
G1 X56.403 Y47.838 E6.48068
G1 F6240
G1 X56.094 Y47.909 E6.36477
G1 F6240
G1 X55.906 Y47.909 E6.29607
G1 F6240
G1 X55.583 Y47.835 E6.17488
G1 F6240
G1 X55.282 Y47.655 E6.04676
G1 F6240
G1 X55.060 Y47.402 E5.92389
G1 F6240
G1 X54.956 Y47.198 E5.84027
G1 F6240
